X: 168
T: Pays de Haut
C: R-84
M: C|
Z: Transcribed to abc by Mary Lou Knack
R: reel
K: D
fg| "D"afaf d2ef| "A7"gfge c2ef| "Em"gfed "A7"cABc| "D"defg a2fg|
    "D"afaf d2ef| "A7"gfge c2ef| "Em"gfed "A7"cABc| "D"dfec d2 :|
|:\
AG| "D"FAdA FAdA| "G"GBdB GBdB| "A7"ABcd efec| "D"defg a2A2|
    "D"FAdA FAdA| "G"GBdB GBdB| "A7"ABcd efec| "D"d2f2 d2 :|
%%text 9/1/98
